6-data-storage/03-indexeddb/indexeddb-index.svg

<?xml version="1.0" encoding="UTF-8"?>
<svg width="440px" height="289px" viewBox="0 0 440 289" version="1.1" xmlns="http://www.w3.org/2000/svg" xmlns:xlink="http://www.w3.org/1999/xlink">
    <!-- Generator: Sketch 55.2 (78181) - https://sketchapp.com -->
    <title>indexeddb-index.svg</title>
    <desc>Created with Sketch.</desc>
    <g id="indexeddb-index.svg" stroke="none" stroke-width="1" fill="none" fill-rule="evenodd">
        <path d="M17,43 L17,101 L124,101 L124,43 L17,43 Z" id="Rectangle-1" stroke="#E8C48E" stroke-width="2" fill="#FFF9EB"></path>
        <path d="M17,43 L17,101 L130,101 L130,43 L17,43 Z" id="Rectangle-1-Copy" stroke="#E8C48E" stroke-width="2" fill="#FFF9EB"></path>
        <text id="id:-'html'-price:-3" font-family="PTMono-Regular, PT Mono" font-size="14" font-weight="normal" fill="#8A704D">
            <tspan x="27" y="66">id: 'html'</tspan>
            <tspan x="27" y="81">price: 3</tspan>
        </text>
        <path d="M17,101 L17,159 L130,159 L130,101 L17,101 Z" id="Rectangle-1-Copy-2" stroke="#E8C48E" stroke-width="2" fill="#FFF9EB"></path>
        <text id="id:-'css'-price:-5" font-family="PTMono-Regular, PT Mono" font-size="14" font-weight="normal" fill="#8A704D">
            <tspan x="27" y="124">id: 'css'</tspan>
            <tspan x="27" y="139">price: 5</tspan>
        </text>
        <text id="3:-['html']-5:-['css" font-family="PTMono-Regular, PT Mono" font-size="16" font-weight="normal" line-spacing="30" fill="#8A704D">
            <tspan x="245" y="57">3:  ['html']</tspan>
            <tspan x="245" y="87">5:  ['css']</tspan>
            <tspan x="245" y="117">10: ['js','nodejs']</tspan>
        </text>
        <path d="M17,159 L17,217 L130,217 L130,159 L17,159 Z" id="Rectangle-1-Copy-3" stroke="#E8C48E" stroke-width="2" fill="#FFF9EB"></path>
        <text id="id:-'js'-price:-10" font-family="PTMono-Regular, PT Mono" font-size="14" font-weight="normal" fill="#8A704D">
            <tspan x="27" y="182">id: 'js'</tspan>
            <tspan x="27" y="197">price: 10</tspan>
        </text>
        <path d="M17,217 L17,275 L130,275 L130,217 L17,217 Z" id="Rectangle-1-Copy-4" stroke="#E8C48E" stroke-width="2" fill="#FFF9EB"></path>
        <text id="id:-'nodejs'-price:" font-family="PTMono-Regular, PT Mono" font-size="14" font-weight="normal" fill="#8A704D">
            <tspan x="27" y="240">id: 'nodejs'</tspan>
            <tspan x="27" y="255">price: 10</tspan>
        </text>
        <text id="books" font-family="OpenSans-Regular, Open Sans" font-size="18" font-weight="normal" fill="#8A704D">
            <tspan x="16" y="31">books</tspan>
        </text>
        <text id="index" font-family="OpenSans-Regular, Open Sans" font-size="18" font-weight="normal" fill="#8A704D">
            <tspan x="245" y="31">index</tspan>
        </text>
        <path id="Line" d="M223.5,57.5 L220.5,57.5 L220.5,55.5 L223.5,55.5 L223.5,49.5 L237.5,56.5 L223.5,63.5 L223.5,57.5 Z M216.5,55.5 L216.5,57.5 L211.5,57.5 L211.5,55.5 L216.5,55.5 Z M207.5,55.5 L207.5,57.5 L202.5,57.5 L202.5,55.5 L207.5,55.5 Z M198.5,55.5 L198.5,57.5 L193.5,57.5 L193.5,55.5 L198.5,55.5 Z M189.5,55.5 L189.5,57.5 L184.5,57.5 L184.5,55.5 L189.5,55.5 Z M180.5,55.5 L180.5,57.5 L175.5,57.5 L175.5,55.5 L180.5,55.5 Z M171.5,55.5 L171.5,57.5 L166.5,57.5 L166.5,55.5 L171.5,55.5 Z M162.5,55.5 L162.5,57.5 L157.5,57.5 L157.5,55.5 L162.5,55.5 Z M153.5,55.5 L153.5,57.5 L148.5,57.5 L148.5,55.5 L153.5,55.5 Z M144.5,55.5 L144.5,57.5 L139.5,57.5 L139.5,55.5 L144.5,55.5 Z" fill="#EE6B47" fill-rule="nonzero"></path>
        <path id="Line-Copy" d="M224.66239,91.1741321 L221.929809,92.1557389 L221.253665,90.2734986 L223.986246,89.2918919 L221.957812,83.645171 L237.5,85.5 L226.690824,96.820853 L224.66239,91.1741321 Z M217.489184,91.6257877 L218.165329,93.508028 L213.459728,95.1983894 L212.783583,93.3161491 L217.489184,91.6257877 Z M209.019103,94.6684383 L209.695247,96.5506786 L204.989647,98.24104 L204.313502,96.3587997 L209.019103,94.6684383 Z M200.549022,97.7110889 L201.225166,99.5933291 L196.519565,101.283691 L195.843421,99.4014503 L200.549022,97.7110889 Z M192.07894,100.753739 L192.755085,102.63598 L188.049484,104.326341 L187.37334,102.444101 L192.07894,100.753739 Z M183.608859,103.79639 L184.285004,105.67863 L179.579403,107.368992 L178.903258,105.486751 L183.608859,103.79639 Z M175.138778,106.839041 L175.814922,108.721281 L171.109321,110.411642 L170.433177,108.529402 L175.138778,106.839041 Z M166.668696,109.881691 L167.344841,111.763931 L162.63924,113.454293 L161.963096,111.572053 L166.668696,109.881691 Z M158.198615,112.924342 L158.87476,114.806582 L154.169159,116.496943 L153.493014,114.614703 L158.198615,112.924342 Z M149.728534,115.966992 L150.404678,117.849233 L145.699078,119.539594 L145.022933,117.657354 L149.728534,115.966992 Z M141.258452,119.009643 L141.934597,120.891883 L137.228996,122.582245 L136.552852,120.700004 L141.258452,119.009643 Z" fill="#EE6B47" fill-rule="nonzero"></path>
        <path id="Line-Copy-2" d="M225.199039,129.259169 L222.565951,130.47039 L221.73014,128.653409 L224.363228,127.442188 L221.855794,121.991245 L237.5,122.5 L227.706473,134.710112 L225.199039,129.259169 Z M218.096178,130.325031 L218.931989,132.142012 L214.389537,134.23154 L213.553726,132.414559 L218.096178,130.325031 Z M209.919764,134.086182 L210.755575,135.903162 L206.213123,137.99269 L205.377312,136.17571 L209.919764,134.086182 Z M201.74335,137.847332 L202.579161,139.664313 L198.036709,141.753841 L197.200898,139.93686 L201.74335,137.847332 Z M193.566936,141.608482 L194.402747,143.425463 L189.860295,145.514991 L189.024484,143.698011 L193.566936,141.608482 Z M185.390522,145.369633 L186.226333,147.186614 L181.683881,149.276142 L180.848069,147.459161 L185.390522,145.369633 Z M177.214108,149.130783 L178.049919,150.947764 L173.507467,153.037292 L172.671655,151.220311 L177.214108,149.130783 Z M169.037694,152.891934 L169.873505,154.708915 L165.331053,156.798443 L164.495241,154.981462 L169.037694,152.891934 Z M160.86128,156.653084 L161.697091,158.470065 L157.154638,160.559593 L156.318827,158.742612 L160.86128,156.653084 Z M152.684865,160.414235 L153.520677,162.231216 L148.978224,164.320744 L148.142413,162.503763 L152.684865,160.414235 Z M144.508451,164.175385 L145.344263,165.992366 L140.80181,168.081894 L139.965999,166.264913 L144.508451,164.175385 Z" fill="#EE6B47" fill-rule="nonzero"></path>
        <path id="Line-Copy-3" d="M228.038757,143.367492 L225.892381,145.40655 L224.514882,143.956551 L226.661258,141.917493 L222.528762,137.567496 L237.5,133 L232.171254,147.717489 L228.038757,143.367492 Z M221.614884,146.711549 L222.992383,148.161548 L219.367386,151.605295 L217.989887,150.155296 L221.614884,146.711549 Z M215.089889,152.910294 L216.467388,154.360293 L212.842391,157.80404 L211.464892,156.354041 L215.089889,152.910294 Z M208.564894,159.109039 L209.942393,160.559038 L206.317396,164.002785 L204.939897,162.552786 L208.564894,159.109039 Z M202.039899,165.307784 L203.417398,166.757783 L199.792401,170.20153 L198.414902,168.751532 L202.039899,165.307784 Z M195.514904,171.506529 L196.892403,172.956528 L193.267406,176.400276 L191.889907,174.950277 L195.514904,171.506529 Z M188.98991,177.705275 L190.367408,179.155273 L186.742411,182.599021 L185.364912,181.149022 L188.98991,177.705275 Z M182.464915,183.90402 L183.842414,185.354019 L180.217416,188.797766 L178.839917,187.347767 L182.464915,183.90402 Z M175.93992,190.102765 L177.317419,191.552764 L173.692421,194.996511 L172.314923,193.546512 L175.93992,190.102765 Z M169.414925,196.30151 L170.792424,197.751509 L167.167427,201.195256 L165.789928,199.745257 L169.414925,196.30151 Z M162.88993,202.500255 L164.267429,203.950254 L160.642432,207.394001 L159.264933,205.944002 L162.88993,202.500255 Z M156.364935,208.699 L157.742434,210.148999 L154.117437,213.592746 L152.739938,212.142748 L156.364935,208.699 Z M149.83994,214.897745 L151.217439,216.347744 L147.592442,219.791492 L146.214943,218.341493 L149.83994,214.897745 Z M143.314945,221.096491 L144.692444,222.54649 L141.067447,225.990237 L139.689948,224.540238 L143.314945,221.096491 Z" fill="#EE6B47" fill-rule="nonzero"></path>
    </g>
</svg>

<svg xmlns="http://www.w3.org/2000/svg" width="473" height="291" viewBox="0 0 473 291"><defs><style>@import url(https://fonts.googleapis.com/css?family=Open+Sans:bold,italic,bolditalic%7CPT+Mono);@font-face{font-family:&apos;PT Mono&apos;;font-weight:700;font-style:normal;src:local(&apos;PT MonoBold&apos;),url(/font/PTMonoBold.woff2) format(&apos;woff2&apos;),url(/font/PTMonoBold.woff) format(&apos;woff&apos;),url(/font/PTMonoBold.ttf) format(&apos;truetype&apos;)}</style></defs><g id="data-storage" fill="none" fill-rule="evenodd" stroke="none" stroke-width="1"><g id="indexeddb-index.svg"><path id="Rectangle-1" fill="#FFF9EB" stroke="#E8C48E" stroke-width="2" d="M17 43v58h107V43H17z"/><path id="Rectangle-1-Copy" fill="#FFF9EB" stroke="#E8C48E" stroke-width="2" d="M17 43v58h113V43H17z"/><text id="id:-'html'-price:-3" fill="#8A704D" font-family="PTMono-Regular, PT Mono" font-size="14" font-weight="normal"><tspan x="27" y="66">id: &apos;html&apos;</tspan> <tspan x="27" y="81">price: 3</tspan></text><path id="Rectangle-1-Copy-2" fill="#FFF9EB" stroke="#E8C48E" stroke-width="2" d="M17 101v58h113v-58H17z"/><text id="id:-'css'-price:-5" fill="#8A704D" font-family="PTMono-Regular, PT Mono" font-size="14" font-weight="normal"><tspan x="27" y="124">id: &apos;css&apos;</tspan> <tspan x="27" y="139">price: 5</tspan></text><text id="3:-['html']-5:-['css" fill="#8A704D" font-family="PTMono-Regular, PT Mono" font-size="20" font-weight="normal"><tspan x="245" y="60">3: [&apos;html&apos;]</tspan> <tspan x="245" y="90">5: [&apos;css&apos;]</tspan> <tspan x="245" y="120">10: [&apos;js&apos;,&apos;nodejs&apos;]</tspan></text><path id="Rectangle-1-Copy-3" fill="#FFF9EB" stroke="#E8C48E" stroke-width="2" d="M17 159v58h113v-58H17z"/><text id="id:-'js'-price:-10" fill="#8A704D" font-family="PTMono-Regular, PT Mono" font-size="14" font-weight="normal"><tspan x="27" y="182">id: &apos;js&apos;</tspan> <tspan x="27" y="197">price: 10</tspan></text><path id="Rectangle-1-Copy-4" fill="#FFF9EB" stroke="#E8C48E" stroke-width="2" d="M17 217v58h113v-58H17z"/><text id="id:-'nodejs'-price:" fill="#8A704D" font-family="PTMono-Regular, PT Mono" font-size="14" font-weight="normal"><tspan x="27" y="240">id: &apos;nodejs&apos;</tspan> <tspan x="27" y="255">price: 10</tspan></text><text id="books" fill="#8A704D" font-family="OpenSans-Regular, Open Sans" font-size="18" font-weight="normal"><tspan x="16" y="31">books</tspan></text><text id="index" fill="#8A704D" font-family="OpenSans-Regular, Open Sans" font-size="18" font-weight="normal"><tspan x="245" y="31">index</tspan></text><path id="Line" fill="#EE6B47" fill-rule="nonzero" d="M223.5 57.5h-3v-2h3v-6l14 7-14 7v-6zm-7-2v2h-5v-2h5zm-9 0v2h-5v-2h5zm-9 0v2h-5v-2h5zm-9 0v2h-5v-2h5zm-9 0v2h-5v-2h5zm-9 0v2h-5v-2h5zm-9 0v2h-5v-2h5zm-9 0v2h-5v-2h5zm-9 0v2h-5v-2h5z"/><path id="Line-Copy" fill="#EE6B47" fill-rule="nonzero" d="M224.662 91.174l-2.732.982-.676-1.883 2.732-.981-2.028-5.647L237.5 85.5l-10.81 11.32-2.028-5.646zm-7.173.452l.676 1.882-4.705 1.69-.676-1.882 4.705-1.69zm-8.47 3.042l.676 1.883-4.705 1.69-.676-1.882 4.705-1.69zm-8.47 3.043l.676 1.882-4.705 1.69-.677-1.882 4.706-1.69zm-8.47 3.043l.676 1.882-4.706 1.69-.676-1.882 4.706-1.69zm-8.47 3.042l.676 1.883-4.706 1.69-.676-1.882 4.706-1.69zm-8.47 3.043l.676 1.882-4.706 1.69-.676-1.882 4.706-1.69zm-8.47 3.043l.676 1.882-4.706 1.69-.676-1.882 4.706-1.69zm-8.47 3.042l.676 1.883-4.706 1.69-.676-1.882 4.706-1.69zm-8.47 3.043l.676 1.882-4.706 1.69-.676-1.882 4.706-1.69zm-8.47 3.043l.676 1.882-4.706 1.69-.676-1.882 4.705-1.69z"/><path id="Line-Copy-2" fill="#EE6B47" fill-rule="nonzero" d="M225.199 129.26l-2.633 1.21-.836-1.817 2.633-1.21-2.507-5.452 15.644.509-9.794 12.21-2.507-5.45zm-7.103 1.065l.836 1.817-4.542 2.09-.836-1.817 4.542-2.09zm-8.176 3.761l.836 1.817-4.543 2.09-.836-1.817 4.543-2.09zm-8.177 3.761l.836 1.817-4.542 2.09-.836-1.817 4.542-2.09zm-8.176 3.761l.836 1.817-4.543 2.09-.836-1.817 4.543-2.09zm-8.176 3.762l.835 1.817-4.542 2.09-.836-1.818 4.543-2.09zm-8.177 3.76l.836 1.818-4.543 2.09-.835-1.818 4.542-2.09zm-8.176 3.762l.836 1.817-4.543 2.09-.836-1.818 4.543-2.09zm-8.177 3.761l.836 1.817-4.542 2.09-.836-1.817 4.542-2.09zm-8.176 3.761l.836 1.817-4.543 2.09-.836-1.817 4.543-2.09zm-8.177 3.761l.836 1.817-4.542 2.09-.836-1.817 4.542-2.09z"/><path id="Line-Copy-3" fill="#EE6B47" fill-rule="nonzero" d="M235.224 142.071l-2.182 1.948-1.332-1.492 2.182-1.948-3.997-4.475L245 132l-5.78 14.546-3.996-4.475zm-6.497 3.12l1.332 1.492-3.73 3.33-1.332-1.49 3.73-3.331zm-6.713 5.995l1.332 1.492-3.73 3.33-1.331-1.491 3.729-3.33zm-6.713 5.995l1.332 1.492-3.73 3.33-1.331-1.491 3.729-3.33zm-6.713 5.995l1.332 1.492-3.73 3.33-1.331-1.492 3.73-3.33zm-6.713 5.995l1.332 1.491-3.729 3.33-1.332-1.49 3.73-3.331zm-6.713 5.994l1.333 1.492-3.73 3.33-1.332-1.491 3.73-3.33zm-6.713 5.995l1.333 1.492-3.73 3.33-1.332-1.491 3.73-3.33zm-6.712 5.995l1.332 1.492-3.73 3.33-1.332-1.492 3.73-3.33zm-6.713 5.995l1.332 1.492-3.73 3.33-1.332-1.492 3.73-3.33zm-6.713 5.995l1.332 1.491-3.73 3.33-1.332-1.491 3.73-3.33zm-6.713 5.994l1.332 1.492-3.73 3.33-1.331-1.491 3.729-3.33zm-6.713 5.995l1.332 1.492-3.73 3.33-1.331-1.492 3.729-3.33zm-6.713 5.995l1.332 1.492-3.73 3.33-1.331-1.492 3.73-3.33zm-6.713 5.995l1.332 1.491-3.729 3.33-1.332-1.491 3.73-3.33z"/></g></g></svg>
